!!!COM: Music21
!!!OTL: Valse do Firma
!!!OMV: pezas_valses_valse-do-firma_valse-do-firma-partitura.musicxml
**kern
*part1
*staff1
*I"Bagpipes
*I'Bag
*clefG^2
*k[]
*M3/4
=1
!LO:TX:a:t=Presto
2ee
4ff
=
2gg
[4gg
=
4gg]
4aa
4gg
=
2ee
4ee
=
4ee
4dd
4ee
=
2ff
4ff
=
4ff
4ee
4ff
=
[2.gg
=
2.gg]
=
4ee
4ee
4ff
=
2gg
[4gg
!!linebreak:original
=
4gg]
4aa
4gg
=
2ee
4gg
=
4gg
4ff
4gg
=
4.bb
8aa
[4gg
=
4gg]
2ff
=
[2.ee
=
2.ee]
=||
*M3/4
!LO:TX:a:t=Presto
2ee
4ff
=
2gg
[4gg
=
4gg]
4aa
4gg
=
2ee
4ee
!!linebreak:original
=
4ee
4dd
4ee
=
2ff
4ff
=
4ff
4ee
4ff
=
[2.gg
=
2.gg]
=
4ee
4ee
4ff
=
2gg
[4gg
=
4gg]
4aa
4gg
=
2ee
4gg
=
4gg
4ff
4gg
=
4.bb
8aa
[4gg
!!linebreak:original
=
4gg]
2ff
=
[2.ee
=
4ee]
8ggL
8aaJ
8ggL
8aaJ
=||
4.bb
8aa
[4bb
=
8bbL]
8aaJ
4bb
4aa
=
4aa
8ggL
8ffJ
[4gg
=
8ggL]
8ggJ
4aa
4gg
=
4gg
8ffL
8eeJ
[4ff
=
8ffL]
8ggJ
4bb
4aa
!!linebreak:original
=
4aa
8ggL
8ffJ
[4gg
=
4gg]
8ggL
8aaJ
8ggL
8aaJ
=
4.bb
8aa
[4bb
=
8bbL]
8aaJ
4bb
4aa
=
4aa
8ggL
8ffJ
[4gg
=
4gg]
4gg
4aa
=
4.bb
8aa
4gg
=
4aa
4gg
4ff
=
[2.ee
!!pagebreak:original
=
4ee]
8ggL
8aaJ
8ggL
8aaJ
=||
4.bb
8aa
[4bb
=
8bbL]
8aaJ
4bb
4aa
=
4aa
8ggL
8ffJ
[4gg
=
8ggL]
8ggJ
4aa
4gg
=
4gg
8ffL
8eeJ
[4ff
=
8ffL]
8ggJ
4bb
4aa
=
4aa
8ggL
8ffJ
[4gg
!!linebreak:original
=
4gg]
8ggL
8aaJ
8ggL
8aaJ
=
4.bb
8aa
[4bb
=
8bbL]
8aaJ
4bb
4aa
=
4aa
8ggL
8ffJ
[4gg
=
4gg]
4gg
4aa
=
4.bb
8aa
4gg
=
4aa
4gg
4ff
=||
[2.ee
=
2.ee]
==
*-
!!!system-decoration: s1,s2
